X: 232
T: Whenever the Tribe Assembles
C: Teton Sioux band 1911-1914
N: Derived from sioux227.krn
O: South Dakota, U.S.A.
N: Teton Sioux Music by Frances Densmore, 1918
Z: transcribed to **kern format by Craig Sapp
L: 1/8
M: 3/4
Q: 1/4=58
K: Gb clef=treble
%%linebreak <none>
e2B2=c B [I:setbarnb 2]| 
B6 | 
B B =c B B B/ A/ | 
A/ A =G/ A A-A2 | 
G G/ E/ E< EE2- ||  
[M:2/4]E4 | 
A/ A =G/ A/ A3/ ||  
[M:3/4]A4G G ||  
[M:2/4]E2E3/ E/ | 
E4 ||  
[M:3/4]E4E B | 
B2B2e B3// A// | 
A< A B/ (A =G/) [I:setbarnb 13]||  
[M:2/4]A2A2 | 
G G G G | 
G< EE2 ||  
[M:3/4]E6 | 
A (A/> G/) A< AA2 | 
G G G< EE2 | 
E4z2 |]  



